X: 144	% 38
T: Ricketts Hornpipe
S: Viola Ruth "Pioneer Western Folk Tunes" 1948 p.14 #4
R: hornpipe, reel
Z: 2019 John Chambers <jc:trillian.mit.edu>
M: 2/4
L: 1/16
Q: "Fast"
K: D
V: 1 name="38"
|: (3(ABc) |\
dcdA FAdf | edcB A2g2 | fafd egec | edcB Agfe | dcdA FAdf |
edcB A2g2 | fafd egec | d2d2d2 :: (fg) | afaf d2(ga) | bgbg e2(fg) |
afba gfed | edcB Agfe | dcdA FAdf | edcB A2g2 | fafd egec | d2d2d2 :|
